poi/svg/1009.svg

<?xml version="1.0" encoding="UTF-8" standalone="no"?>
<svg
   xmlns:dc="http://purl.org/dc/elements/1.1/"
   xmlns:cc="http://creativecommons.org/ns#"
   xmlns:rdf="http://www.w3.org/1999/02/22-rdf-syntax-ns#"
   xmlns:svg="http://www.w3.org/2000/svg"
   xmlns="http://www.w3.org/2000/svg"
   xmlns:sodipodi="http://sodipodi.sourceforge.net/DTD/sodipodi-0.dtd"
   xmlns:inkscape="http://www.inkscape.org/namespaces/inkscape"
   inkscape:version="1.0 (4035a4fb49, 2020-05-01)"
   sodipodi:docname="1009.svg"
   id="svg20"
   version="1.2"
   viewBox="0 0 42.519639 42.519639"
   height="14.999999mm"
   width="14.999999mm">
  <metadata
     id="metadata24">
    <rdf:RDF>
      <cc:Work
         rdf:about="">
        <dc:format>image/svg+xml</dc:format>
        <dc:type
           rdf:resource="http://purl.org/dc/dcmitype/StillImage" />
        <dc:title>Qt SVG Document</dc:title>
      </cc:Work>
    </rdf:RDF>
  </metadata>
  <sodipodi:namedview
     inkscape:current-layer="svg20"
     inkscape:window-maximized="1"
     inkscape:window-y="-9"
     inkscape:window-x="-9"
     inkscape:cy="28.346482"
     inkscape:cx="28.346482"
     inkscape:zoom="18.047943"
     fit-margin-bottom="0"
     fit-margin-right="0"
     fit-margin-left="0"
     fit-margin-top="0"
     showgrid="false"
     id="namedview22"
     inkscape:window-height="1013"
     inkscape:window-width="1920"
     inkscape:pageshadow="2"
     inkscape:pageopacity="0"
     guidetolerance="10"
     gridtolerance="10"
     objecttolerance="10"
     borderopacity="1"
     bordercolor="#666666"
     pagecolor="#ffffff" />
  <title
     id="title2">Qt SVG Document</title>
  <desc
     id="desc4">Generated with Qt</desc>
  <defs
     id="defs6" />
  <g
     transform="translate(5.25984,5.25984)"
     id="g18"
     stroke-linejoin="bevel"
     stroke-linecap="square"
     fill-rule="evenodd"
     stroke-width="1"
     stroke="#000000"
     fill="none">
    <g
       id="g10"
       font-style="normal"
       font-weight="400"
       font-size="7.8px"
       font-family="'MS Shell Dlg 2'"
       stroke="none"
       fill-opacity="1"
       fill="#1f78b4">
      <path
         id="path8"
         d="M 37.2598,16 C 37.2598,27.7415 27.7415,37.2598 16,37.2598 4.25851,37.2598 -5.25984,27.7415 -5.25984,16 -5.25984,4.25851 4.25851,-5.25984 16,-5.25984 27.7415,-5.25984 37.2598,4.25851 37.2598,16"
         fill-rule="evenodd"
         vector-effect="non-scaling-stroke" />
    </g>
    <g
       id="g14"
       font-style="normal"
       font-weight="400"
       font-size="7.8px"
       font-family="'MS Shell Dlg 2'"
       transform="translate(16,13.7323)"
       stroke="none"
       fill-opacity="1"
       fill="#ffffff">
      <path
         id="path12"
         d="m 10.1953,-7.08105 c 0.112,0.29394 0.2905,0.81184 0.5354,1.55371 0.245,0.74186 0.3884,1.65869 0.4304,2.75048 0.042,1.0918 -0.1014,2.348068 -0.4304,3.768803 C 10.4018,2.41268 9.75439,3.94889 8.78857,5.60059 L 9.04053,8.95996 5.76514,11.8994 5.21924,10.2617 c -0.89584,0.7139 -1.85116,1.2913 -2.86597,1.7322 -1.01481,0.4409 -2.012124,0.7769 -2.991942,1.0078 -0.979818,0.231 -1.889648,0.3884 -2.729488,0.4724 -0.83985,0.084 -1.51872,0.126 -2.03663,0.126 l -4.17822,3.1074 h -0.08398 c -0.08399,0.056 -0.16097,0.049 -0.23096,-0.021 -0.06999,-0.07 -0.10495,-0.1609 -0.10495,-0.2729 v -0.189 l 1.15476,-3.7793 -2.16256,-3.35936 c -0.056,-0.08399 -0.084,-0.15397 -0.084,-0.20996 0,-0.08399 0.0315,-0.16097 0.0945,-0.23096 0.0629,-0.06999 0.1224,-0.10498 0.1784,-0.10498 h 0.168 l 4.89208,2.05766 c 1.17578,-0.112 2.1591,-0.476 2.94995,-1.09184 C -2.02091,8.88997 -1.38053,8.1936 -0.890625,7.41675 -0.400716,6.63989 -0.0367839,5.88753 0.201172,5.15967 0.439128,4.4318 0.607096,3.8929 0.705078,3.54297 0.817057,2.96908 1.01652,2.25871 1.30347,1.41187 1.59041,0.565023 1.95435,-0.323812 2.39526,-1.25464 2.83618,-2.18547 3.34359,-3.0883 3.91748,-3.96313 4.49137,-4.83797 5.10726,-5.57633 5.76514,-6.17822 l 1.63769,-1.53272 c -0.27995,0.5739 -0.5004,1.16879 -0.66137,1.78467 -0.16097,0.61589 -0.29745,1.18278 -0.40943,1.70068 -0.11198,0.60189 -0.21696,1.20378 -0.31494,1.80567 0.64388,-0.86784 1.21777,-1.6447 1.72168,-2.33057 0.46191,-0.57389 0.92383,-1.10579 1.38574,-1.5957 0.46192,-0.48991 0.81885,-0.73486 1.07079,-0.73486 M 7.65479,-0.530273 C 7.71077,-0.250326 7.84725,-0.0158691 8.06421,0.173096 8.28117,0.362061 8.55062,0.428548 8.87256,0.372559 9.09652,0.316569 9.28898,0.180094 9.44995,-0.0368652 9.61092,-0.253825 9.65641,-0.481283 9.58643,-0.719238 9.58643,-0.999186 9.47445,-1.23364 9.25049,-1.42261 9.02653,-1.61157 8.76758,-1.67806 8.47363,-1.62207 8.22168,-1.55208 8.00822,-1.42611 7.83325,-1.24414 7.65828,-1.06217 7.5988,-0.824219 7.65479,-0.530273 M -5.40479,2.09424 C -5.97868,1.82829 -6.46859,1.49585 -6.87451,1.09692 -7.28044,0.697998 -7.57438,0.239583 -7.75635,-0.27832 c -0.18196,-0.517904 -0.27295,-1.0638 -0.27295,-1.6377 0,-0.57389 0.09798,-1.14778 0.29395,-1.72168 0.29394,-0.76985 0.66138,-1.46272 1.10229,-2.07861 0.44092,-0.61588 0.87834,-1.17578 1.31226,-1.67969 0.43392,-0.5039 0.80835,-0.94132 1.12329,-1.31225 0.31494,-0.37093 0.50041,-0.70337 0.5564,-0.99732 l 1.49072,0.10498 c -0.22396,0.47592 -0.5424,0.93783 -0.95532,1.38575 -0.41293,0.44791 -0.85034,0.89933 -1.31226,1.35424 -0.46191,0.45492 -0.89933,0.93433 -1.31225,1.43824 -0.41293,0.5039 -0.72437,1.0428 -0.93433,1.6167 -0.39193,1.0358 -0.44442,2.01212 -0.15747,2.928951 0.28695,0.9168294 0.96932,1.606201 2.04712,2.068119 1.00781,0.36393 2.02262,0.11547 3.04443,-0.745365 1.021811,-0.86084 1.861655,-2.362065 2.519533,-4.503665 -0.027995,0.08399 -0.048991,0.39893 -0.062989,0.94483 -0.013997,0.5459 -0.020996,1.11979 -0.020996,1.72168 V 1.00244 C 0.635091,0.806478 0.572103,0.610514 0.516113,0.414551 0.460124,0.260579 0.411133,0.106608 0.369141,-0.0473633 0.327148,-0.201335 0.278158,-0.306315 0.222168,-0.362305 0.0262044,0.211589 -0.27474,0.704997 -0.680664,1.11792 -1.08659,1.53084 -1.545,1.84578 -2.05591,2.06274 -2.56681,2.2797 -3.10921,2.39518 -3.68311,2.40918 -4.257,2.42318 -4.83089,2.3182 -5.40479,2.09424"
         fill-rule="evenodd"
         vector-effect="none" />
    </g>
    <g
       id="g16"
       font-style="normal"
       font-weight="400"
       font-size="7.8px"
       font-family="'MS Shell Dlg 2'"
       stroke="none"
       fill-opacity="1"
       fill="#1f78b4" />
  </g>
</svg>

<?xml version="1.0" encoding="UTF-8" standalone="no"?>
<svg width="11.2889mm" height="11.2889mm"
 viewBox="0 0 32 32"
 xmlns="http://www.w3.org/2000/svg" xmlns:xlink="http://www.w3.org/1999/xlink"  version="1.2" baseProfile="tiny">
<title>Qt SVG Document</title>
<desc>Generated with Qt</desc>
<defs>
</defs>
<g fill="none" stroke="black" stroke-width="1" fill-rule="evenodd" stroke-linecap="square" stroke-linejoin="bevel" >

<g fill="#1f78b4" fill-opacity="1" stroke="none" transform="matrix(1,0,0,1,0,0)"
font-family="MS Shell Dlg 2" font-size="7.8" font-weight="400" font-style="normal" 
>
<path vector-effect="non-scaling-stroke" fill-rule="evenodd" d="M37.2598,16 C37.2598,27.7415 27.7415,37.2598 16,37.2598 C4.25851,37.2598 -5.25984,27.7415 -5.25984,16 C-5.25984,4.25851 4.25851,-5.25984 16,-5.25984 C27.7415,-5.25984 37.2598,4.25851 37.2598,16 "/>
</g>

<g fill="#ffffff" fill-opacity="1" stroke="none" transform="matrix(1,0,0,1,16,13.7323)"
font-family="MS Shell Dlg 2" font-size="7.8" font-weight="400" font-style="normal" 
>
<path vector-effect="none" fill-rule="evenodd" d="M10.1953,-7.08105 C10.3073,-6.78711 10.4858,-6.26921 10.7307,-5.52734 C10.9757,-4.78548 11.1191,-3.86865 11.1611,-2.77686 C11.2031,-1.68506 11.0597,-0.428792 10.7307,0.991943 C10.4018,2.41268 9.75439,3.94889 8.78857,5.60059 L9.04053,8.95996 L5.76514,11.8994 L5.21924,10.2617 C4.3234,10.9756 3.36808,11.553 2.35327,11.9939 C1.33846,12.4348 0.341146,12.7708 -0.638672,13.0017 C-1.61849,13.2327 -2.52832,13.3901 -3.36816,13.4741 C-4.20801,13.5581 -4.88688,13.6001 -5.40479,13.6001 L-9.58301,16.7075 L-9.66699,16.7075 C-9.75098,16.7635 -9.82796,16.7565 -9.89795,16.6865 C-9.96794,16.6165 -10.0029,16.5256 -10.0029,16.4136 L-10.0029,16.2246 L-8.84814,12.4453 L-11.0107,9.08594 C-11.0667,9.00195 -11.0947,8.93197 -11.0947,8.87598 C-11.0947,8.79199 -11.0632,8.71501 -11.0002,8.64502 C-10.9373,8.57503 -10.8778,8.54004 -10.8218,8.54004 L-10.6538,8.54004 L-5.76172,10.5977 C-4.58594,10.4857 -3.60262,10.1217 -2.81177,9.50586 C-2.02091,8.88997 -1.38053,8.1936 -0.890625,7.41675 C-0.400716,6.63989 -0.0367839,5.88753 0.201172,5.15967 C0.439128,4.4318 0.607096,3.8929 0.705078,3.54297 C0.817057,2.96908 1.01652,2.25871 1.30347,1.41187 C1.59041,0.565023 1.95435,-0.323812 2.39526,-1.25464 C2.83618,-2.18547 3.34359,-3.0883 3.91748,-3.96313 C4.49137,-4.83797 5.10726,-5.57633 5.76514,-6.17822 L7.40283,-7.71094 C7.12288,-7.13704 6.90243,-6.54215 6.74146,-5.92627 C6.58049,-5.31038 6.44401,-4.74349 6.33203,-4.22559 C6.22005,-3.6237 6.11507,-3.02181 6.01709,-2.41992 C6.66097,-3.28776 7.23486,-4.06462 7.73877,-4.75049 C8.20068,-5.32438 8.6626,-5.85628 9.12451,-6.34619 C9.58643,-6.8361 9.94336,-7.08105 10.1953,-7.08105 M7.65479,-0.530273 C7.71077,-0.250326 7.84725,-0.0158691 8.06421,0.173096 C8.28117,0.362061 8.55062,0.428548 8.87256,0.372559 C9.09652,0.316569 9.28898,0.180094 9.44995,-0.0368652 C9.61092,-0.253825 9.65641,-0.481283 9.58643,-0.719238 C9.58643,-0.999186 9.47445,-1.23364 9.25049,-1.42261 C9.02653,-1.61157 8.76758,-1.67806 8.47363,-1.62207 C8.22168,-1.55208 8.00822,-1.42611 7.83325,-1.24414 C7.65828,-1.06217 7.5988,-0.824219 7.65479,-0.530273 M-5.40479,2.09424 C-5.97868,1.82829 -6.46859,1.49585 -6.87451,1.09692 C-7.28044,0.697998 -7.57438,0.239583 -7.75635,-0.27832 C-7.93831,-0.796224 -8.0293,-1.34212 -8.0293,-1.91602 C-8.0293,-2.48991 -7.93132,-3.0638 -7.73535,-3.6377 C-7.44141,-4.40755 -7.07397,-5.10042 -6.63306,-5.71631 C-6.19214,-6.33219 -5.75472,-6.89209 -5.3208,-7.396 C-4.88688,-7.8999 -4.51245,-8.33732 -4.19751,-8.70825 C-3.88257,-9.07918 -3.6971,-9.41162 -3.64111,-9.70557 L-2.15039,-9.60059 C-2.37435,-9.12467 -2.69279,-8.66276 -3.10571,-8.21484 C-3.51864,-7.76693 -3.95605,-7.31551 -4.41797,-6.8606 C-4.87988,-6.40568 -5.3173,-5.92627 -5.73022,-5.42236 C-6.14315,-4.91846 -6.45459,-4.37956 -6.66455,-3.80566 C-7.05648,-2.76986 -7.10897,-1.79354 -6.82202,-0.876709 C-6.53507,0.0401204 -5.8527,0.729492 -4.7749,1.19141 C-3.76709,1.55534 -2.75228,1.30688 -1.73047,0.446045 C-0.708659,-0.414795 0.131185,-1.91602 0.789063,-4.05762 C0.761068,-3.97363 0.740072,-3.65869 0.726074,-3.11279 C0.712077,-2.56689 0.705078,-1.993 0.705078,-1.39111 L0.705078,1.00244 C0.635091,0.806478 0.572103,0.610514 0.516113,0.414551 C0.460124,0.260579 0.411133,0.106608 0.369141,-0.0473633 C0.327148,-0.201335 0.278158,-0.306315 0.222168,-0.362305 C0.0262044,0.211589 -0.27474,0.704997 -0.680664,1.11792 C-1.08659,1.53084 -1.545,1.84578 -2.05591,2.06274 C-2.56681,2.2797 -3.10921,2.39518 -3.68311,2.40918 C-4.257,2.42318 -4.83089,2.3182 -5.40479,2.09424 "/>
</g>

<g fill="#1f78b4" fill-opacity="1" stroke="none" transform="matrix(1,0,0,1,0,0)"
font-family="MS Shell Dlg 2" font-size="7.8" font-weight="400" font-style="normal" 
>
</g>
</g>
</svg>
